X: 14078
T: READY ANYTIME
C: Bob McQuillen Jan.'76
B: Bob's Note Book 14 #78
%R: march
%D:1976
Z: 2020 John Chambers <jc:trillian.mit.edu>
P: SLOWLY+STATELY
M: C
L: 1/8
K: Em
GA \
| B2e2 e3e | e4 g3f | f2e2 e3^d | e4- e d BA |\
| B2e2 e3d | edBG A2BA | G2E2 E3D | E4- E2 :|
|: Bd \
| e2e2 d2Bd | e2e2 d2Bd | e2d2 BAGA | B2 d4 Bd |\
| e2e2 d2Bd | e2ge d2BA | G2E2 FED2 | E4- E2 :|
% No comments for this tune.
